X: 15
T:Paddy Taylor's
M:C|
L:1/8
Q:200
S:THSP
R:reel
D:
K:D
"D"FEDF ABAF|"C"GE=cE dE=cE|"D"FEDF ABAF|"C"GE=cE "D"EDD2:||
"D"Addc dfed|"A"Beed efge|"D"Addc dfed|"A"cAGE "D"FDD2|
Addc dfed|"G"(3Bcd ef gefg|"D"afge d2cA|"A"(3Bcd AG "D"FDDE|
F2FG (3ABA dA|"C"~G2dG ~G2dG|"D"F2FG (3ABA dA|"C"GE=cE "D"EDDE|
F2FG (3ABA dA|"C"~G2dG eGdG|"D"F2FG (3ABA dA|"C"GE=cE "D"EDD2|]
